X:84
T: LandmÃ¼s (Schottisch)  G (st00968)
S:Hanny Christen. Bd.VI  Fribourg, Welschland, Wallis, Bern I. S.256 (st00968) orig. G-Dur
S:Walliser (Volks-)TÃ¤nze. S.234-276
%%MIDI program 21
R:Schottisch
O:Switzerland
M:2/4
L:1/8
K:G %%MIDI gchordon
!fermata!"G"g3z | !fermata!"D"f3z | !fermata!"C"e3z | !fermata!"G"d3z | "D7"ce Ac | "G"Bd GB | "D7"Ac FA | "G"G2z2 :: "G"BdG2 | 
BdG2 | Bd e>d | "D7"cdF2 | cdF2 | cdF2 |1 cd e>d | "G"BdG2 :|2 c>c BA | "G"G2z2 |]  
W:
W: cf. MÃ¼s [\mÃ¼Ã¼s], pl. of Mus [muus]; Swissgerm. of MÃ¤use/Maus (= mice/mouse)
% st00968

